static/logos/read.cv-glyph-color.svg

<svg width="45" height="48" viewBox="0 0 45 48" fill="none" xmlns="http://www.w3.org/2000/svg">
<path d="M39.7075 8.0357L14.7489 1.77216C12.152 1.12046 9.522 2.71107 8.87454 5.32487L1.75871 34.0513C1.11124 36.6651 2.69152 39.3124 5.28836 39.964L30.247 46.2276C32.8438 46.8793 35.4739 45.2887 36.1213 42.6749L43.2371 13.9484C43.8846 11.3346 42.3043 8.68739 39.7075 8.0357Z" fill="white"/>
<path fill-rule="evenodd" clip-rule="evenodd" d="M14.3602 3.34986C12.6289 2.91539 10.8756 3.97579 10.4439 5.71833L3.32811 34.4448C2.89647 36.1873 3.94999 37.9521 5.68121 38.3866L30.6398 44.6501C32.3711 45.0846 34.1244 44.0242 34.5561 42.2817L41.6719 13.5552C42.1035 11.8127 41.05 10.0479 39.3188 9.6134L14.3602 3.34986ZM7.30928 4.93166C8.17257 1.44659 11.6793 -0.674209 15.1417 0.194716L40.1004 6.45826C43.5628 7.32718 45.6698 10.8568 44.8065 14.3419L37.6907 43.0683C36.8274 46.5534 33.3207 48.6742 29.8583 47.8053L4.89965 41.5417C1.4372 40.6728 -0.669833 37.1432 0.193452 33.6581L7.30928 4.93166Z" fill="black"/>
<path d="M36.923 15.7139L13.748 9.89797C13.2227 9.76614 12.6907 10.0879 12.5597 10.6166L12.2525 11.857C12.1215 12.3858 12.4412 12.9213 12.9665 13.0531L36.1414 18.869C36.6667 19.0008 37.1987 18.6791 37.3297 18.1503L37.637 16.91C37.7679 16.3812 37.4483 15.8457 36.923 15.7139Z" fill="#232224"/>
<path d="M35.1651 23.0873L11.9902 17.2714C11.4649 17.1396 10.9329 17.4613 10.8019 17.9901L10.4947 19.2304C10.3637 19.7592 10.6834 20.2947 11.2087 20.4265L34.3836 26.2424C34.9089 26.3743 35.4409 26.0525 35.5719 25.5238L35.8791 24.2834C36.0101 23.7546 35.6904 23.2191 35.1651 23.0873Z" fill="#232224"/>
<path d="M20.7984 26.8474L10.1621 24.1782C9.63679 24.0464 9.10476 24.3681 8.97379 24.8969L8.66653 26.1372C8.53555 26.666 8.85523 27.2015 9.38054 27.3333L20.0168 30.0026C20.5422 30.1344 21.0742 29.8126 21.2052 29.2839L21.5124 28.0435C21.6434 27.5148 21.3237 26.9793 20.7984 26.8474Z" fill="#232224"/>
</svg>

<svg xmlns="http://www.w3.org/2000/svg" width="60" height="64" fill="none" viewBox="0 0 45 48"><path fill="#fff" d="m39.708 8.036-24.96-6.264c-2.596-.652-5.226.94-5.873 3.553L1.759 34.05c-.648 2.614.933 5.261 3.53 5.913l24.958 6.264c2.597.651 5.227-.94 5.874-3.553l7.116-28.727c.648-2.613-.933-5.26-3.53-5.912Z"/><path fill="#000" fill-rule="evenodd" d="M14.36 3.35a3.23 3.23 0 0 0-3.916 2.368L3.328 34.445c-.432 1.742.622 3.507 2.353 3.942L30.64 44.65a3.23 3.23 0 0 0 3.916-2.368l7.116-28.727c.431-1.742-.622-3.507-2.353-3.942L14.36 3.35ZM7.31 4.932c.863-3.485 4.37-5.606 7.832-4.737L40.1 6.458c3.463.87 5.57 4.399 4.706 7.884l-7.115 28.726c-.864 3.485-4.37 5.606-7.833 4.737L4.9 41.542c-3.463-.87-5.57-4.399-4.707-7.884L7.31 4.932Z" clip-rule="evenodd"/><path fill="#232224" d="M36.923 15.714 13.748 9.898a.98.98 0 0 0-1.188.719l-.308 1.24a.987.987 0 0 0 .714 1.196l23.175 5.816a.98.98 0 0 0 1.189-.719l.307-1.24a.987.987 0 0 0-.714-1.196ZM35.165 23.087 11.99 17.271a.98.98 0 0 0-1.188.72l-.307 1.24a.987.987 0 0 0 .714 1.195l23.175 5.816a.98.98 0 0 0 1.188-.718l.307-1.24a.987.987 0 0 0-.714-1.197ZM20.798 26.847l-10.636-2.669a.98.98 0 0 0-1.188.719l-.307 1.24a.987.987 0 0 0 .714 1.196l10.636 2.67a.98.98 0 0 0 1.188-.72l.307-1.24a.987.987 0 0 0-.714-1.196Z"/></svg>
